X:1
T:Title
%%score { ( 1 3 ) | ( 2 4 ) }
L:1/8
M:4/4
K:G
V:1 treble nm="Grand Piano"
V:3 treble 
V:2 bass 
V:4 bass 
V:1
 z4 z2[Q:1/4=110] [B,D]2 | [B,G]2 [DB]2 [CA]2 [B,G]2 | G4 F2 D2 | A2 c2 B2 _B2 | [DB]6 [DB]2 | %5
 [CA]2 [CE]2 [DF]2 [EG]2 | [DG]4 [DF]2 [DG]2 | [^CA]2 [CA]2 [DB]2 [E^c]2 | [Dd]6 [Dd]2 | %9
 [Dd]2 [Ec]2 [DB]2 [CA]2 | [CA]4 [B,G]2 [B,D]2 | [CE]2 [EG]2 [^CB]2 A2 | A6 D2 | %13
 [B,G]2 [DB]2 [CA]2 [B,G]2 | [DF]4 [CE]2 [Ec]2 | B2 B2 B3 A |[M:3/4] [G,B,G]6 |[M:1/4] D2 | %18
[M:4/4] A3 A G2 A2 | B3 A [DG]2 [=FB]2 | [Ec]2 [EB]2 [EA]2 [EG]2 | G4 F2 D2 | %22
 [B,G]2 [DB]2 [CA]2 [B,G]2 | [CA]4 [CE]2 [Ge]2 | [Gd]2 [GB]2 [FB]3 [FA] |[M:3/4] [DG]6 |] %26
V:2
 z4 z2 [G,,G,]2 | [G,,G,]2 [G,,D,]2 [G,,F,]2 [G,,G,]2 | [D,A,C]4 [D,A,C]2 [D,F,C]2 | %3
 [D,F,C]2 [D,F,E]2 [D,F,D]2 [D,F,^C]2 | [G,,G,]6 [G,,G,]2 | [C,E,]2 [C,G,]2 [C,G,]2 [C,G,]2 | %6
 [B,,G,]4 [B,,G,]2 [B,,G,]2 | [A,,E,]2 [A,,A,]2 [A,,^G,]2 [A,,=G,]2 | [D,F,]6 [D,F,]2 | %9
 [D,F,]2 [D,F,]2 [D,F,]2 [D,F,]2 | [G,,F,]4 [G,,G,]2 [G,,G,]2 | %11
 [C,G,]2 [C,G,]2 [A,,G,]2 [E,G,^C]2 | [D,F,C]6 [D,F,C]2 | [G,,G,]2 [G,,D,]2 [G,,F,]2 [G,,G,]2 | %14
 [D,G,]4 [C,G,]2 [A,,A,]2 | [D,G,D]2 [D,E,D]2 [D,F,D]3 [D,F,C] |[M:3/4] G,,6 |[M:1/4] D,2 | %18
[M:4/4] [D,F,D]3 [D,F,D] [D,E,D]2 [D,F,D]2 | [G,,G,]3 [A,,F,] [B,,G,]2 [D,G,]2 | %20
 [C,G,]2 [C,^G,]2 [C,A,]2 [^C,_B,]2 | B,4 z4 | [G,,G,]2 [G,,D,]2 [G,,F,]2 [G,,G,]2 | %23
 [C,E,]4 [C,G,]2 [^C,A,]2 | [D,B,]2 [D,D]2 [D,D]3 [D,D] |[M:3/4] [G,B,]6 |] %26
V:3
 x8 | x8 | x8 | x8 | x8 | x8 | x8 | x8 | x8 | x8 | x8 | x8 | x8 | x8 | x8 | x8 |[M:3/4] x6 | %17
[M:1/4] x2 |[M:4/4] x8 | D4 z4 | x8 | x8 | x8 | x8 | x8 |[M:3/4] x6 |] %26
V:4
 x8 | x8 | x8 | x8 | x8 | x8 | x8 | x8 | x8 | x8 | x8 | x8 | x8 | x8 | x8 | x8 |[M:3/4] x6 | %17
[M:1/4] x2 |[M:4/4] x8 | x8 | x8 | [D,D]4- [D,A,D]2 [D,F,C]2 | x8 | x8 | x8 |[M:3/4] x6 |] %26

